packages/kaspersky-hexa-ui-icons/src/iconsSVGs/16/NATRules.svg

<svg width="16" height="16" viewBox="0 0 16 16" fill="none" xmlns="http://www.w3.org/2000/svg">
<path fill-rule="evenodd" clip-rule="evenodd" d="M8 1.33301C8.73638 1.33301 9.33301 1.93061 9.33301 2.66699C9.33289 3.16675 9.05738 3.6009 8.65039 3.8291V6.0166H10C10.359 6.0166 10.6504 6.30801 10.6504 6.66699V7.34961H12C12.7268 7.34979 13.3161 7.93925 13.3164 8.66602L13.3174 8.66699V12.1699C13.7245 12.3981 13.9999 12.8332 14 13.333C14 14.0693 13.4032 14.6668 12.667 14.667C11.9306 14.667 11.333 14.0694 11.333 13.333C11.3331 12.833 11.6093 12.398 12.0166 12.1699V8.66602C12.0165 8.66314 12.0156 8.66016 12.0156 8.66016C12.0156 8.66016 12.0135 8.65611 12.0117 8.6543C12.0098 8.6525 12.0059 8.65039 12.0059 8.65039C12.0059 8.65039 12.0027 8.64944 12 8.64941H10.6504V9.33398C10.65 9.69267 10.3588 9.9834 10 9.9834H8.65039V12.1699C9.05761 12.3981 9.33289 12.8331 9.33301 13.333C9.33301 14.0694 8.73638 14.667 8 14.667C7.26362 14.667 6.66699 14.0694 6.66699 13.333C6.66711 12.8331 6.94239 12.3981 7.34961 12.1699V9.9834H6C5.64123 9.9834 5.34996 9.69267 5.34961 9.33398V8.64941H4C3.99668 8.64944 3.99316 8.65039 3.99316 8.65039C3.99316 8.65039 3.99006 8.65259 3.98828 8.6543C3.98638 8.6562 3.98438 8.66016 3.98438 8.66016C3.98438 8.66016 3.98346 8.66296 3.9834 8.66602V12.1699C4.39075 12.398 4.66687 12.833 4.66699 13.333C4.66699 14.0694 4.06939 14.667 3.33301 14.667C2.59678 14.6668 2 14.0693 2 13.333C2.00012 12.8332 2.27554 12.3981 2.68262 12.1699V8.66602C2.68297 7.93925 3.27319 7.34979 4 7.34961H5.34961V6.66699C5.34961 6.30801 5.64102 6.0166 6 6.0166H7.34961V3.8291C6.94262 3.6009 6.66711 3.16675 6.66699 2.66699C6.66699 1.93061 7.26362 1.33301 8 1.33301ZM6.65039 8.68359H9.34961V7.31738H6.65039V8.68359Z" fill="black"/>
</svg>

<svg xmlns="http://www.w3.org/2000/svg" width="16" height="16" fill="none" viewBox="0 0 16 16"><path fill="#000" fill-rule="evenodd" d="M8 1.333c.7364 0 1.333.5976 1.333 1.334-.0001.4998-.2756.9339-.6826 1.1621v2.1875H10c.359 0 .6504.2914.6504.6504v.6826H12c.7268.0002 1.3161.5897 1.3164 1.3164l.001.001v3.5029c.4071.2282.6825.6633.6826 1.1631 0 .7363-.5968 1.3338-1.333 1.334-.7364 0-1.334-.5976-1.334-1.334.0001-.5.2763-.935.6836-1.1631V8.666c-.0001-.0029-.001-.0058-.001-.0058s-.0021-.004-.0039-.0059a.04.04 0 0 0-.0058-.004s-.0032-.0009-.0059-.0009h-1.3496v.6846A.6504.6504 0 0 1 10 9.9834H8.6504v2.1865c.4072.2282.6825.6632.6826 1.1631 0 .7364-.5966 1.334-1.333 1.334s-1.333-.5976-1.333-1.334c.0001-.4999.2754-.9349.6826-1.1631V9.9834H6a.6504.6504 0 0 1-.6504-.6494v-.6846H4c-.0033 0-.0068.001-.0068.001s-.0031.0022-.005.0039a.03.03 0 0 0-.0038.0059s-.001.0028-.001.0058v3.504c.4073.2281.6835.6631.6836 1.1631 0 .7364-.5976 1.334-1.334 1.334C2.5968 14.6668 2 14.0693 2 13.333c.0001-.4998.2755-.9349.6826-1.1631V8.666C2.683 7.9393 3.2732 7.3498 4 7.3496h1.3496V6.667c0-.359.2914-.6504.6504-.6504h1.3496V3.8291c-.407-.2282-.6825-.6623-.6826-1.1621 0-.7364.5966-1.334 1.333-1.334M6.6504 8.6836h2.6992V7.3174H6.6504z"/></svg>
